actions/32/system-suspend.svg

<?xml version="1.0" encoding="UTF-8" standalone="no"?>
<svg
   xmlns:dc="http://purl.org/dc/elements/1.1/"
   xmlns:cc="http://creativecommons.org/ns#"
   xmlns:rdf="http://www.w3.org/1999/02/22-rdf-syntax-ns#"
   xmlns:svg="http://www.w3.org/2000/svg"
   xmlns="http://www.w3.org/2000/svg"
   xmlns:xlink="http://www.w3.org/1999/xlink"
   version="1.1"
   width="32"
   height="32"
   id="svg4248">
  <defs
     id="defs4250">
    <linearGradient
       id="linearGradient4011-4">
      <stop
         id="stop4013-8"
         style="stop-color:#ffffff;stop-opacity:1"
         offset="0" />
      <stop
         id="stop4015-5"
         style="stop-color:#ffffff;stop-opacity:0.23529412"
         offset="0.507761" />
      <stop
         id="stop4017-6"
         style="stop-color:#ffffff;stop-opacity:0.15686275"
         offset="0.83456558" />
      <stop
         id="stop4019-1"
         style="stop-color:#ffffff;stop-opacity:0.39215687"
         offset="1" />
    </linearGradient>
    <linearGradient
       x1="71.204407"
       y1="6.2375584"
       x2="71.204407"
       y2="44.340794"
       id="linearGradient3089"
       xlink:href="#linearGradient4011-4"
       gradientUnits="userSpaceOnUse"
       gradientTransform="matrix(0.72972969,0,0,0.72972969,-36.346075,-2.5039314)" />
    <linearGradient
       id="linearGradient3820-7-2-2">
      <stop
         id="stop3822-2-6-36"
         style="stop-color:#3d3d3d;stop-opacity:1"
         offset="0" />
      <stop
         id="stop3864-8-7-6"
         style="stop-color:#686868;stop-opacity:0.49803922"
         offset="0.5" />
      <stop
         id="stop3824-1-2-4"
         style="stop-color:#686868;stop-opacity:0"
         offset="1" />
    </linearGradient>
    <radialGradient
       cx="99.157013"
       cy="186.17059"
       r="62.769119"
       fx="99.157013"
       fy="186.17059"
       id="radialGradient3315"
       xlink:href="#linearGradient3820-7-2-2"
       gradientUnits="userSpaceOnUse"
       gradientTransform="matrix(0.17524541,0,0,0.05575992,-1.3768101,18.118568)" />
    <linearGradient
       xlink:href="#linearGradient4215-4"
       id="linearGradient3163-1"
       gradientUnits="userSpaceOnUse"
       gradientTransform="matrix(0.57422969,0,0,0.57422969,-2.3753495,-3.52381)"
       x1="38.976662"
       y1="59.967686"
       x2="38.976662"
       y2="8.0928917" />
    <linearGradient
       id="linearGradient4215-4">
      <stop
         offset="0"
         style="stop-color:#dcdcdc;stop-opacity:1"
         id="stop4217-9" />
      <stop
         offset="1"
         style="stop-color:#f0f0f0;stop-opacity:1"
         id="stop4219-7" />
    </linearGradient>
  </defs>
  <metadata
     id="metadata4253">
    <rdf:RDF>
      <cc:Work
         rdf:about="">
        <dc:format>image/svg+xml</dc:format>
        <dc:type
           rdf:resource="http://purl.org/dc/dcmitype/StillImage" />
        <dc:title />
      </cc:Work>
    </rdf:RDF>
  </metadata>
  <path
     d="m 27.000001,28.499422 a 11,3.4999999 0 1 1 -21.9999997,0 11,3.4999999 0 1 1 21.9999997,0 z"
     id="path3818-0-2"
     style="fill:url(#radialGradient3315);fill-opacity:1;stroke:none" />
  <path
     d="M 16.000002,1.4999989 C 7.9994024,1.4999989 1.5,7.9993978 1.5,15.999998 1.5,24.0006 7.9994024,30.500002 16.000002,30.5 24.000599,30.5 30.500007,24.0006 30.5,15.999998 30.5,7.9993978 24.000599,1.4999989 16.000002,1.4999989 z"
     id="path2555"
     style="color:#000000;fill:url(#linearGradient3163-1);fill-opacity:1;fill-rule:nonzero;stroke:none;stroke-width:0.71428572999999995;marker:none;visibility:visible;display:inline;overflow:visible;enable-background:accumulate;stroke-linecap:round;stroke-linejoin:round;stroke-miterlimit:4;stroke-opacity:1;stroke-dasharray:none;stroke-dashoffset:0" />
  <path
     d="M 16.000002,1.4999989 C 7.999402,1.4999989 1.5,7.9993981 1.5,15.999999 1.5,24.000599 7.999402,30.500002 16.000002,30.5 24.000598,30.5 30.500008,24.000599 30.5,15.999999 30.5,7.9993981 24.000598,1.4999989 16.000002,1.4999989 z"
     id="path2555-6"
     style="opacity:0.50000000000000000;color:#000000;fill:#000000;fill-opacity:0;fill-rule:nonzero;stroke:#000000;stroke-width:1;stroke-linecap:round;stroke-linejoin:round;stroke-miterlimit:4;stroke-opacity:1;stroke-dasharray:none;stroke-dashoffset:0;marker:none;visibility:visible;display:inline;overflow:visible;enable-background:accumulate" />
  <path
     d="m 16,1.9994222 c -2.172577,0 -4.23659,0.4970929 -6.072499,1.3825 l 5.25,11.1299988 -9.17,-8.329999 c -2.482975,2.5270991 -4.0075,5.999783 -4.0075,9.817499 0,1.00944 0.111451,1.990833 0.315,2.94 L 16.14,15.369421 15.9125,15.176922 24.8375,5.1494221 C 22.426694,3.1839039 19.34878,1.9994222 16,1.9994222 z m 13.4925,10.2549998 -13.755,3.29 0.0525,0.035 -11.9525,7.349999 c 2.412363,4.222415 6.9571,7.070002 12.162499,7.07 0.394521,0 0.786185,-0.0204 1.1725,-0.0525 -0.503219,-5.765292 -1.242755,-14.087014 -1.259999,-14.28 l 11.112499,8.9425 C 28.88491,22.23273 30,19.247212 29.999998,15.99942 c 0,-1.295834 -0.177101,-2.553523 -0.5075,-3.745 z"
     id="path4004"
     style="fill:#000000;fill-opacity:0.04255317;stroke:none" />
  <path
     d="m 16,1.9994222 c -1.683974,0 -3.298784,0.3110525 -4.794999,0.8575 l 3.9725,11.6549988 -10.2025,-7.1399989 c -1.864952,2.378405 -2.975,5.3748379 -2.975,8.6274989 0,0.66997 0.04874,1.332484 0.14,1.9775 L 16.14,15.369421 15.9125,15.176922 23.7,4.3269221 C 21.488822,2.8646452 18.846017,1.9994222 16,1.9994222 z m 13.7375,11.3224988 -14,2.222501 0.0525,0.035 -11.0075,8.785 c 2.55444,3.414418 6.630949,5.635001 11.217499,5.634999 0.111802,0 0.221322,0.0026 0.332501,0 -0.166772,-5.813509 -0.402829,-14.140324 -0.42,-14.332498 l 11.619999,8.242499 c 1.5494,-2.252867 2.467502,-4.972636 2.4675,-7.91 0,-0.916541 -0.09388,-1.809829 -0.2625,-2.677499 z"
     id="path4004-0"
     style="fill:#000000;fill-opacity:0.04787233;stroke:none" />
  <path
     d="m 16,1.9994222 c -1.270691,0 -2.50423,0.1718724 -3.675,0.49 L 15.86,15.334421 22.4575,3.5919222 C 20.523786,2.5826549 18.32981,1.9994222 16,1.9994222 z M 4.082501,8.6494221 c -1.320082,2.1357569 -2.0825,4.6578829 -2.0825,7.3499989 0,0.323816 0.0133,0.644134 0.035,0.962501 l 13.895,-1.540001 -11.8475,-6.7724999 z m 25.829998,5.7574989 -13.964999,0.84 12.057499,7.9625 c 1.267118,-2.105147 1.995003,-4.576906 1.995001,-7.21 0,-0.537016 -0.02846,-1.071115 -0.0875,-1.5925 z M 16.0175,15.351921 6.112501,25.92192 c 2.440078,2.431498 5.781705,3.950407 9.467499,4.060001 l 0.4375,-14.63 z"
     id="path3893-7"
     style="fill:#000000;fill-opacity:0.05851063;stroke:none" />
  <path
     d="m 16,1.9994222 c -0.767243,0 -1.523582,0.055916 -2.257499,0.175 L 15.86,15.334421 21.075,2.9619222 C 19.500166,2.347571 17.790741,1.9994222 16,1.9994222 z M 3.435001,9.8219221 c -0.886174,1.7983239 -1.40073,3.8199129 -1.435,5.9499989 L 15.93,15.421921 3.435001,9.8219221 z m 12.512499,5.4249999 12.53,7.104999 c 0.973101,-1.906317 1.522501,-4.067706 1.5225,-6.3525 0,-0.194323 -0.0096,-0.385088 -0.0175,-0.5775 L 15.947499,15.246922 z m 0.07,0.105 -8.102499,12.057499 c 1.969442,1.399623 4.303045,2.313963 6.842499,2.5375 l 1.26,-14.595 z"
     id="path3893-7-5"
     style="fill:#000000;fill-opacity:0.06382979;stroke:none" />
  <path
     d="m 16,1.9994222 c -0.353097,0 -0.70342,0.00924 -1.05,0.035 L 15.86,15.334421 19.395,2.4194222 c -1.087042,-0.271317 -2.224629,-0.42 -3.395,-0.42 z M 2.892501,11.099422 c -0.413077,1.10337 -0.700428,2.267853 -0.8225,3.4825 L 15.93,15.421921 2.892501,11.099421 z m 13.054999,4.1475 12.9675,6.159999 c 0.619892,-1.475717 0.990475,-3.079425 1.067499,-4.759999 l -14.034999,-1.4 z m 0.07,0.105 L 9.91,28.59942 c 1.208785,0.585515 2.513728,1.007779 3.885,1.225001 l 2.2225,-14.4725 z"
     id="path3893"
     style="fill:#000000;fill-opacity:0.10106381;stroke:none" />
  <path
     d="M 16.0875,1.9994222 15.86,15.334421 17.9775,2.1394222 c -0.616691,-0.087252 -1.250372,-0.136042 -1.89,-0.14 z M 2.560001,12.079422 c -0.157904,0.541712 -0.29307,1.095932 -0.385,1.6625 L 15.93,15.421921 z m 13.387499,3.1675 13.334999,5.144999 c 0.253983,-0.767716 0.459428,-1.560151 0.577501,-2.38 z m 0.07,0.105 -5.18,13.649999 c 0.313751,0.125319 0.638129,0.247046 0.962501,0.35 0.286965,0.09025 0.580431,0.173086 0.874999,0.245 0.07599,0.01869 0.151035,0.03508 0.2275,0.0525 z"
     id="path3893-9"
     style="fill:#000000;fill-opacity:0.0851064;stroke:none" />
  <path
     d="m 29.5,15.999521 c 0,7.456085 -6.044601,13.500478 -13.499829,13.500478 C 8.54426,29.499999 2.5,23.455537 2.5,15.999521 2.5,8.5437808 8.54426,2.5000002 16.000171,2.5000002 23.455399,2.5000002 29.5,8.5437808 29.5,15.999521 l 0,0 z"
     id="path8655"
     style="opacity:0.8;color:#000000;fill:none;stroke:url(#linearGradient3089);stroke-width:1;stroke-linecap:round;stroke-linejoin:round;stroke-miterlimit:4;stroke-opacity:1;stroke-dasharray:none;stroke-dashoffset:0;marker:none;visibility:visible;display:inline;overflow:visible;enable-background:accumulate" />
  <path
     style="opacity:0.50000000000000000;color:#000000;fill:#ffffff;fill-opacity:1;fill-rule:nonzero;stroke:none;stroke-width:1;marker:none;visibility:visible;display:inline;overflow:visible;enable-background:accumulate"
     d="m 16,7.5 c -5.246705,0 -9.5,4.253295 -9.5,9.5 0,5.246705 4.253295,9.5 9.5,9.5 5.246705,0 9.5,-4.253295 9.5,-9.5 0,-5.246705 -4.253295,-9.5 -9.5,-9.5 z m 0,2 c 3.804875,0 6.950887,2.828113 7.4375,6.5 L 8.5625,16 C 9.0491134,12.328113 12.195125,9.5 16,9.5 z M 8.5625,18 23.4375,18 C 22.950887,21.671887 19.804875,24.5 16,24.5 12.195125,24.5 9.0491134,21.671887 8.5625,18 z"
     id="path3168-5" />
  <path
     style="opacity:0.65;color:#000000;fill:#000000;fill-opacity:1;fill-rule:nonzero;stroke:none;stroke-width:1px;marker:none;visibility:visible;display:inline;overflow:visible;enable-background:accumulate"
     d="M 16 6.5 C 10.753295 6.5 6.5 10.753295 6.5 16 C 6.5 21.246705 10.753295 25.5 16 25.5 C 21.246705 25.5 25.5 21.246705 25.5 16 C 25.5 10.753295 21.246705 6.5 16 6.5 z M 16 8.5 C 19.804875 8.5 22.950887 11.328113 23.4375 15 L 8.5625 15 C 9.0491134 11.328113 12.195125 8.5 16 8.5 z M 8.5625 17 L 23.4375 17 C 22.950887 20.671887 19.804875 23.5 16 23.5 C 12.195125 23.5 9.0491134 20.671887 8.5625 17 z "
     id="path3168" />
</svg>

<svg xmlns="http://www.w3.org/2000/svg" xmlns:xlink="http://www.w3.org/1999/xlink" viewBox="0 0 32 32"><defs><linearGradient id="a"><stop offset="0" stop-color="#fff"/><stop offset=".508" stop-color="#fff" stop-opacity=".235"/><stop offset=".835" stop-color="#fff" stop-opacity=".157"/><stop offset="1" stop-color="#fff" stop-opacity=".392"/></linearGradient><linearGradient x1="71.204" y1="6.238" x2="71.204" y2="44.341" id="f" xlink:href="#a" gradientUnits="userSpaceOnUse" gradientTransform="translate(-36.346 -2.504) scale(.72973)"/><linearGradient id="b"><stop offset="0" stop-color="#3d3d3d"/><stop offset=".5" stop-color="#686868" stop-opacity=".498"/><stop offset="1" stop-color="#686868" stop-opacity="0"/></linearGradient><radialGradient cx="99.157" cy="186.171" r="62.769" fx="99.157" fy="186.171" id="d" xlink:href="#b" gradientUnits="userSpaceOnUse" gradientTransform="matrix(.17525 0 0 .05576 -1.377 18.12)"/><linearGradient xlink:href="#c" id="e" gradientUnits="userSpaceOnUse" gradientTransform="translate(-2.375 -3.524) scale(.57423)" x1="38.977" y1="59.968" x2="38.977" y2="8.093"/><linearGradient id="c"><stop offset="0" stop-color="#dcdcdc"/><stop offset="1" stop-color="#f0f0f0"/></linearGradient></defs><path d="M27 28.5a11 3.5 0 1 1-22 0 11 3.5 0 1 1 22 0z" fill="url(#d)"/><path d="M16 1.5C8 1.5 1.5 8 1.5 16S8 30.5 16 30.5 30.5 24 30.5 16 24 1.5 16 1.5z" color="#000" fill="url(#e)" overflow="visible"/><path d="M16 1.5C8 1.5 1.5 8 1.5 16S8 30.5 16 30.5 30.5 24 30.5 16 24 1.5 16 1.5z" opacity=".5" color="#000" stroke="#000" stroke-linecap="round" stroke-linejoin="round" overflow="visible" fill="none"/><path d="M16 2c-2.173 0-4.237.497-6.072 1.382l5.25 11.13-9.17-8.33A13.97 13.97 0 0 0 2 16c0 1.01.11 1.99.315 2.94l13.825-3.57-.228-.193L24.837 5.15A13.946 13.946 0 0 0 16 2zm13.492 10.254l-13.755 3.29.053.035-11.953 7.35C6.25 27.15 10.795 30 16 30c.395 0 .786-.02 1.172-.053a9459.81 9459.81 0 0 0-1.26-14.28l11.113 8.942A13.922 13.922 0 0 0 30 16c0-1.296-.177-2.554-.508-3.746z" fill-opacity=".043"/><path d="M16 2c-1.684 0-3.3.31-4.795.857l3.973 11.655-10.203-7.14A13.935 13.935 0 0 0 2 16c0 .67.05 1.332.14 1.977l14-2.608-.228-.195L23.7 4.325A13.915 13.915 0 0 0 16 2zm13.738 11.32l-14 2.222.052.035L4.783 24.36C7.337 27.78 11.413 30 16 30c.112 0 .22.002.333 0-.167-5.814-.403-14.14-.42-14.333l11.62 8.242a13.91 13.91 0 0 0 2.204-10.59z" fill-opacity=".048"/><path d="M16 2c-1.27 0-2.504.17-3.675.49l3.535 12.844 6.598-11.742A13.918 13.918 0 0 0 16 2zM4.083 8.65a13.945 13.945 0 0 0-2.048 8.312l13.895-1.54L4.083 8.65zm25.83 5.757l-13.966.84 12.058 7.962A13.948 13.948 0 0 0 30 16c0-.538-.028-1.072-.088-1.593zm-13.896.945l-9.904 10.57a13.964 13.964 0 0 0 9.467 4.06l.438-14.63z" fill-opacity=".059"/><path d="M16 2c-.767 0-1.524.055-2.257.174l2.117 13.16 5.215-12.372A13.932 13.932 0 0 0 16 2zM3.435 9.82A13.95 13.95 0 0 0 2 15.772l13.93-.35-12.495-5.6zm12.512 5.425l12.53 7.105A13.94 13.94 0 0 0 30 16c0-.195-.01-.386-.018-.578l-14.035-.175zm.07.105L7.915 27.41a13.888 13.888 0 0 0 6.842 2.537l1.26-14.595z" fill-opacity=".064"/><path d="M16 2c-.353 0-.703.01-1.05.034l.91 13.3L19.395 2.42A14.007 14.007 0 0 0 16 2zM2.893 11.1a13.88 13.88 0 0 0-.823 3.482l13.86.84L2.893 11.1zm13.055 4.147l12.967 6.16c.62-1.476.99-3.08 1.067-4.76l-14.034-1.4zm.07.105L9.91 28.6a13.9 13.9 0 0 0 3.885 1.224l2.223-14.472z" fill-opacity=".101"/><path d="M16.087 2l-.227 13.334L17.977 2.14a14.14 14.14 0 0 0-1.89-.14zM2.56 12.08a13.904 13.904 0 0 0-.385 1.662l13.755 1.68zm13.387 3.167l13.335 5.145c.254-.768.46-1.56.578-2.38zm.07.105l-5.18 13.65c.314.125.64.247.963.35.287.09.58.173.875.245.076.02.15.035.227.052z" fill-opacity=".085"/><path d="M29.5 16c0 7.456-6.045 13.5-13.5 13.5-7.456 0-13.5-6.044-13.5-13.5S8.544 2.5 16 2.5c7.455 0 13.5 6.044 13.5 13.5z" opacity=".8" color="#000" fill="none" stroke="url(#f)" stroke-linecap="round" stroke-linejoin="round" overflow="visible"/><path d="M16 7.5a9.5 9.5 0 1 0 0 19 9.5 9.5 0 0 0 0-19zm0 2a7.5 7.5 0 0 1 7.438 6.5H8.563A7.5 7.5 0 0 1 16 9.5zM8.562 18h14.876A7.5 7.5 0 0 1 16 24.5 7.5 7.5 0 0 1 8.562 18z" opacity=".5" color="#000" fill="#fff" overflow="visible"/><path d="M16 6.5a9.5 9.5 0 1 0 0 19 9.5 9.5 0 0 0 0-19zm0 2a7.5 7.5 0 0 1 7.438 6.5H8.563A7.5 7.5 0 0 1 16 8.5zM8.562 17h14.876A7.5 7.5 0 0 1 16 23.5 7.5 7.5 0 0 1 8.562 17z" opacity=".65" color="#000" overflow="visible"/></svg>
